_inc/systems/logos/naomi.svg

<svg xmlns="http://www.w3.org/2000/svg" viewBox="0 0 3839 835.4"><path d="M839 511.3h611.3v120.1H839zM3718.9 48.7H3839v722.8h-120.1zm-254.7 0-425.9 493.2-425.8-493.2v722.7h120.1v-400l305.7 354.3 305.8-354.3v400h120.1zM591 48.7h120.1v600.4H591zM0 164.1h120.1v607.4H0z" class="st2" style="fill:#fff"/><path d="M711 616.2v155.2L0 188.9V33.7zM2079.5 0c-230.6 0-417.7 187-417.7 417.7s187 417.7 417.7 417.7c230.6 0 417.7-187 417.7-417.7S2310.2 0 2079.5 0m0 120.1c-164.4 0-297.6 133.2-297.6 297.6s133.2 297.6 297.6 297.6 297.6-133.2 297.6-297.6-133.2-297.6-297.6-297.6m0 573.6c-152.3 0-276-123.9-276-276 0-152.3 123.9-276 276-276 152.3 0 276 123.9 276 276 .1 152.2-123.8 276-276 276m0 21.6c-164.4 0-297.6-133.2-297.6-297.6s133.2-297.6 297.6-297.6 297.6 133.2 297.6 297.6c0 164.3-133.2 297.6-297.6 297.6M975.2 771.4l267.5-488.9 267.6 488.9h136.8L1242.7 32.5 838.3 771.4z" class="st2" style="fill:#fff"/></svg>

<?xml version="1.0" encoding="utf-8"?>
<svg version="1.1" viewBox="0 0 3839 835.4" xmlns="http://www.w3.org/2000/svg">
  <rect x="839" y="511.3" class="st2" width="611.3" height="120.1" style="fill: rgb(255, 255, 255);"/>
  <rect x="3718.9" y="48.7" class="st2" width="120.1" height="722.8" style="fill: rgb(255, 255, 255);"/>
  <polygon class="st2" points="3464.2 48.7 3038.3 541.9 2612.5 48.7 2612.5 771.4 2732.6 771.4 2732.6 371.4 3038.3 725.7 3344.1 371.4 3344.1 771.4 3464.2 771.4" style="fill: rgb(255, 255, 255);"/>
  <rect x="591" y="48.7" class="st2" width="120.1" height="600.4" style="fill: rgb(255, 255, 255);"/>
  <rect y="164.1" class="st2" width="120.1" height="607.4" style="fill: rgb(255, 255, 255);"/>
  <polygon class="st2" points="711 616.2 711 771.4 0 188.9 0 33.7" style="fill: rgb(255, 255, 255);"/>
  <path class="st2" d="M 2079.5 0 C 1848.9 0 1661.8 187 1661.8 417.7 C 1661.8 648.4 1848.8 835.4 2079.5 835.4 C 2310.1 835.4 2497.2 648.4 2497.2 417.7 C 2497.2 187 2310.2 0 2079.5 0 Z M 2079.5 120.1 C 1915.1 120.1 1781.9 253.3 1781.9 417.7 C 1781.9 582.1 1915.1 715.3 2079.5 715.3 C 2243.9 715.3 2377.1 582.1 2377.1 417.7 C 2377.1 253.3 2243.9 120.1 2079.5 120.1 Z M 2079.5 693.7 C 1927.2 693.7 1803.5 569.8 1803.5 417.7 C 1803.5 265.4 1927.4 141.7 2079.5 141.7 C 2231.8 141.7 2355.5 265.6 2355.5 417.7 C 2355.6 569.9 2231.7 693.7 2079.5 693.7 Z M 2079.5 715.3 C 1915.1 715.3 1781.9 582.1 1781.9 417.7 C 1781.9 253.3 1915.1 120.1 2079.5 120.1 C 2243.9 120.1 2377.1 253.3 2377.1 417.7 C 2377.1 582 2243.9 715.3 2079.5 715.3 Z" style="fill: rgb(255, 255, 255);"/>
  <polygon class="st2" points="975.2 771.4 1242.7 282.5 1510.3 771.4 1647.1 771.4 1242.7 32.5 838.3 771.4" style="fill: rgb(255, 255, 255);"/>
</svg>
